la/bluetooth-b.svg

<svg xmlns="http://www.w3.org/2000/svg" viewBox="0 0 32 32" height="1em" width="1em">
  <path d="M 14 3.59375 L 14 13.5625 L 9.71875 9.28125 L 8.28125 10.71875 L 13.5625 16 L 8.28125 21.28125 L 9.71875 22.71875 L 14 18.4375 L 14 28.40625 L 15.71875 26.71875 L 20.71875 21.71875 L 21.40625 21 L 20.71875 20.28125 L 16.4375 16 L 20.71875 11.71875 L 21.40625 11 L 20.71875 10.28125 L 15.71875 5.28125 Z M 16 8.4375 L 18.5625 11 L 16 13.5625 Z M 16 18.4375 L 18.5625 21 L 16 23.5625 Z"/>
</svg>

<svg xmlns="http://www.w3.org/2000/svg" viewBox="0 0 32 32" height="1em" width="1em">
  <path d="M14 3.594v9.969L9.719 9.28 8.28 10.72 13.562 16l-5.28 5.281 1.437 1.438L14 18.437v9.97l1.719-1.688 5-5 .687-.719-.687-.719L16.437 16l4.282-4.281.687-.719-.687-.719-5-5Zm2 4.844L18.563 11 16 13.563Zm0 10L18.563 21 16 23.563Z"/>
</svg>
